svgs/duotone/camera-rotate.svg

<svg xmlns="http://www.w3.org/2000/svg" viewBox="0 0 512 512"><!-- Font Awesome Pro 6.0.0-alpha2 by @fontawesome - https://fontawesome.com License - https://fontawesome.com/license (Commercial License) --><defs><style>.fa-secondary{opacity:.4}</style></defs><path d="M464 96H376L363.625 63.125C356.625 44.375 338.75 32 318.75 32H193.25C173.25 32 155.25 44.375 148.25 63.125L136 96H48C21.5 96 0 117.5 0 144V432C0 458.5 21.5 480 48 480H464C490.5 480 512 458.5 512 432V144C512 117.5 490.5 96 464 96ZM356.891 366.781C332.438 398.062 295.672 416 256 416C224.217 416 194.631 404.057 171.416 383.395L152.135 402.686C143.23 411.594 128 405.289 128 392.695V316.275C128 310.822 132.359 306.438 137.775 306.285H214.754C227.105 306.588 233.227 321.557 224.408 330.379L205.135 349.66C219.324 361.412 237.107 368 256 368C280.797 368 303.781 356.781 319.078 337.219C327.25 326.781 342.328 324.937 352.766 333.094S365.062 356.344 356.891 366.781ZM384 259.725C384 265.178 379.641 269.562 374.225 269.715H297.246C284.895 269.412 278.773 254.443 287.592 245.621L306.865 226.34C292.676 214.588 274.893 208 256 208C231.203 208 208.219 219.219 192.922 238.781C184.75 249.219 169.656 251.078 159.234 242.906C148.797 234.75 146.938 219.656 155.109 209.219C179.562 177.938 216.328 160 256 160C287.783 160 317.369 171.943 340.584 192.605L359.865 173.314C368.77 164.406 384 170.711 384 183.305V259.725Z" class="fa-secondary"/><path d="M319.078 337.219C303.781 356.781 280.797 368 256 368C237.107 368 219.324 361.412 205.135 349.66L224.408 330.379C233.227 321.557 227.105 306.588 214.754 306.285H137.775C132.359 306.438 128 310.822 128 316.275V392.695C128 405.289 143.23 411.594 152.135 402.686L171.416 383.395C194.631 404.057 224.217 416 256 416C295.672 416 332.438 398.062 356.891 366.781C365.062 356.344 363.203 341.25 352.766 333.094S327.25 326.781 319.078 337.219ZM359.865 173.314L340.584 192.605C317.369 171.943 287.783 160 256 160C216.328 160 179.562 177.938 155.109 209.219C146.938 219.656 148.797 234.75 159.234 242.906C169.656 251.078 184.75 249.219 192.922 238.781C208.219 219.219 231.203 208 256 208C274.893 208 292.676 214.588 306.865 226.34L287.592 245.621C278.773 254.443 284.895 269.412 297.246 269.715H374.225C379.641 269.562 384 265.178 384 259.725V183.305C384 170.711 368.77 164.406 359.865 173.314Z" class="fa-primary"/></svg>

<svg xmlns="http://www.w3.org/2000/svg" viewBox="0 0 512 512"><!--! Font Awesome Pro 6.3.0 by @fontawesome - https://fontawesome.com License - https://fontawesome.com/license (Commercial License) Copyright 2023 Fonticons, Inc. --><defs><style>.fa-secondary{opacity:.4}</style></defs><path class="fa-primary" d="M319.1 337.2C303.8 356.8 280.8 368 256 368c-18.89 0-36.68-6.588-50.87-18.34l19.27-19.28c8.818-8.822 2.697-23.79-9.654-24.09H137.8C132.4 306.4 128 310.8 128 316.3v76.42c0 12.59 15.23 18.9 24.13 9.99l19.28-19.29C194.6 404.1 224.2 416 256 416c39.67 0 76.44-17.94 100.9-49.22c8.172-10.44 6.312-25.53-4.125-33.69S327.3 326.8 319.1 337.2zM359.9 173.3l-19.28 19.29C317.4 171.9 287.8 160 256 160C216.3 160 179.6 177.9 155.1 209.2C146.9 219.7 148.8 234.8 159.2 242.9c10.42 8.172 25.52 6.312 33.69-4.125C208.2 219.2 231.2 208 256 208c18.89 0 36.68 6.588 50.87 18.34l-19.27 19.28c-8.818 8.822-2.697 23.79 9.654 24.09h76.98C379.6 269.6 384 265.2 384 259.7V183.3C384 170.7 368.8 164.4 359.9 173.3z"/><path class="fa-secondary" d="M464 96h-88l-12.38-32.88C356.6 44.38 338.8 32 318.8 32h-125.5c-20 0-38 12.38-45 31.12L136 96H48C21.5 96 0 117.5 0 144v288C0 458.5 21.5 480 48 480h416c26.5 0 48-21.5 48-48v-288C512 117.5 490.5 96 464 96zM356.9 366.8C332.4 398.1 295.7 416 256 416c-31.78 0-61.37-11.94-84.58-32.61l-19.28 19.29C143.2 411.6 128 405.3 128 392.7V316.3c0-5.453 4.359-9.838 9.775-9.99h76.98c12.35 .3027 18.47 15.27 9.654 24.09l-19.27 19.28C219.3 361.4 237.1 368 256 368c24.8 0 47.78-11.22 63.08-30.78c8.172-10.44 23.25-12.28 33.69-4.125S365.1 356.3 356.9 366.8zM384 259.7c0 5.453-4.359 9.838-9.775 9.99h-76.98c-12.35-.3027-18.47-15.27-9.654-24.09l19.27-19.28C292.7 214.6 274.9 208 256 208c-24.8 0-47.78 11.22-63.08 30.78C184.8 249.2 169.7 251.1 159.2 242.9C148.8 234.8 146.9 219.7 155.1 209.2C179.6 177.9 216.3 160 256 160c31.78 0 61.37 11.94 84.58 32.61l19.28-19.29C368.8 164.4 384 170.7 384 183.3V259.7z"/></svg>
